X: 1
T: Eleanor Plunkett
R: waltz
M: 3/4
L: 1/8
K: Gmaj
GA | B2B2AG | G2G2ag | e2e2 ed | B2B2AG |E2A2 AB|
A4 ga | b2 aged | e4 ef | g2g2b2 | a2 bagf | g2 agfe | d2B2d2| e2g2G2 | B2B2AG | E2A2AB | A4 |


Tune 2575	Setting 29884

